X:1
T:Lord Rendal
M:3/4
L:1/4
K:C
 D| B B B| B- A G| A A A| A2 D| A A A| A- B c| G G G| G2 D| B2 B| B A G/2G/2|\
 A G E| D2 D/2D/2| G A B| B2 G| A3/2 G/2 A| G2||
